X:3
T:Galopp  CGF 10- chords
M:2/4
L:1/8
K:Cmaj%%MIDI gchordon
"C"G2E>F | G^F .G2 | G2 c>B | "Dm/F"A^G A2 | "G7"A2 F>E | DE .F2 | 
G2A>B | "C"c2z2:: [K:Gmaj] "G"B>B c>B | "D7"A^G .A2 | A2 B>A | "G"GAB2 | 
B>B AG | "D7"FA c2 | "Am"c2"D7"F>A | "G"G2z2 :: [K:Cmaj] "G7"F2d2 | zd e>d | "C"c2G2 | zc B>c | "F".d2.c2 | 
"G7".B2A2 | "C"TA2G2 | TA2G2 | "G7"F2d2 | zd e>d | "C"c2G2 | zc Bc | "F"A2d2 | "G7"zG AB | 
"C"c>c c>c | c2z2 :: [K:Fmaj] "F"C2A2 | AG FE | "Bb"D2B2 | BA GF | "C7"E2c2 | B2E2 | "F"F4 | 
"C7"GF ED | "F"C2A2 | AG FE | "Bb"D2B2 | BA GF | "C7"E2c2 | B2E2 | "F"F>F F>F | F2z2 :| 

